svgs/sharp-duotone-light/square-arrow-up-left.svg

<svg xmlns="http://www.w3.org/2000/svg" viewBox="0 0 448 512"><!--! Font Awesome Pro 7.1.0 by @fontawesome - https://fontawesome.com License - https://fontawesome.com/license (Commercial License) Copyright 2025 Fonticons, Inc. --><path opacity=".4" fill="currentColor" d="M32 64l384 0 0 384-384 0 0-384zm96 96l0 160 32 0 0-105.4 132.7 132.7 11.3 11.3 22.6-22.6-11.3-11.3-132.7-132.7 105.4 0 0-32-160 0z"/><path fill="currentColor" d="M32 64l0 384 384 0 0-384-384 0zM0 32l448 0 0 448-448 0 0-448zM272 192l-89.4 0 132.7 132.7 11.3 11.3-22.6 22.6-11.3-11.3-132.7-132.7 0 105.4-32 0 0-160 160 0 0 32-16 0z"/></svg>

<svg xmlns="http://www.w3.org/2000/svg" viewBox="0 0 448 512"><!--! Font Awesome Pro 6.7.2 by @fontawesome - https://fontawesome.com License - https://fontawesome.com/license (Commercial License) Copyright 2024 Fonticons, Inc. --><defs><style>.fa-secondary{opacity:.4}</style></defs><path class="fa-secondary" d="M32 64l384 0 0 384L32 448 32 64zm96 96l0 16 0 144 0 16 32 0 0-16 0-105.4L292.7 347.3 304 358.6 326.6 336l-11.3-11.3L182.6 192l97.4 0 16 0 0-32-16 0-136 0-16 0z"/><path class="fa-primary" d="M32 64l0 384 384 0 0-384L32 64zM0 32l32 0 384 0 32 0 0 32 0 384 0 32-32 0L32 480 0 480l0-32L0 64 0 32zM144 160l136 0 16 0 0 32-16 0-97.4 0L315.3 324.7 326.6 336 304 358.6l-11.3-11.3L160 214.6 160 320l0 16-32 0 0-16 0-144 0-16 16 0z"/></svg>
